public/box3.svg

<svg width="365" height="294" viewBox="0 0 365 294" fill="none" xmlns="http://www.w3.org/2000/svg">
<rect y="0.154297" width="365" height="293" rx="18" fill="url(#paint0_linear_2023_3392)"/>
<path d="M320.117 200.236C320.115 200.236 320.092 200.236 320.091 200.236C318.456 200.229 316.922 199.586 315.773 198.425C314.622 197.265 313.991 195.726 314 194.093C314.014 190.734 316.758 188 320.117 188C321.777 188.007 323.311 188.65 324.462 189.811C325.611 190.972 326.242 192.512 326.233 194.144C326.22 197.505 323.476 200.236 320.117 200.236ZM320.136 189.77C317.729 189.77 315.78 191.713 315.769 194.1C315.764 195.261 316.212 196.355 317.029 197.179C317.846 198.005 318.937 198.462 320.098 198.466H320.117C322.504 198.466 324.453 196.524 324.464 194.138C324.47 192.975 324.022 191.881 323.204 191.057C322.387 190.232 321.297 189.776 320.136 189.77Z" fill="white"/>
<path d="M46.1166 45.2351C46.1146 45.2351 46.0922 45.2351 46.0908 45.2351C42.7178 45.2196 39.9865 42.4619 40.0001 39.0908C40.0136 35.7319 42.7577 33 46.1166 33C49.5154 33.0136 52.2487 35.7699 52.2352 39.143C52.2209 42.5012 49.4755 45.2351 46.1166 45.2351ZM46.1356 34.7689C43.7289 34.7689 41.7798 36.7113 41.7689 39.0976C41.7588 41.494 43.7005 43.4534 46.0976 43.4656H46.1166C48.5043 43.4656 50.4554 41.5232 50.4656 39.1355C50.4758 36.737 48.5334 34.7797 46.1356 34.7689Z" fill="white"/>
<path d="M63.2828 207.866C61.3526 207.866 59.7166 207.301 58.4187 206.184C57.8413 205.688 57.3201 205.154 56.8653 204.591C54.0521 206.561 49.8555 207.596 44.6424 207.596C43.9165 207.596 43.1649 207.577 42.3842 207.536C37.9382 207.304 34.8837 204.916 33.9139 200.952C31.5845 200.572 29.1568 199.406 26.8519 197.553C23.2646 194.67 22.1125 190.44 23.693 185.951C25.3378 181.28 29.6042 177.621 33.4069 177.621C34.0223 177.621 34.6113 177.711 35.1731 177.89C35.2212 176.098 35.6014 173.095 37.4421 171.07C39.5689 168.724 43.0009 168.354 47.5194 170.052C49.2334 170.695 50.7278 171.505 51.9721 172.464C54.1178 170.361 56.7962 169.169 59.4333 169.169C61.4082 169.169 63.3282 169.807 65.1405 171.062C69.1893 173.867 71.5647 178.046 71.6237 182.386C74.0235 182.546 76.2628 183.747 78.1306 185.883C80.6464 188.761 81.0435 192.523 79.2502 196.473C76.4959 202.542 69.0347 207.866 63.2828 207.866ZM58.2235 203.459C58.6173 203.948 59.0687 204.411 59.5729 204.845C60.5387 205.675 61.7877 206.097 63.2828 206.097C68.3367 206.097 75.1791 201.16 77.6399 195.742C78.6938 193.421 79.402 190.029 76.7982 187.049C75.2313 185.255 73.4563 184.282 71.5193 184.153C70.9595 188.3 68.2431 191.346 64.6993 191.681C64.5197 191.698 64.3502 191.705 64.191 191.705C64.191 191.705 64.191 191.705 64.1889 191.705C62.3489 191.705 61.6678 190.611 61.6454 189.589C61.5898 187.175 65.3221 183.095 69.8548 182.454C69.8168 178.672 67.7172 175.002 64.13 172.517C62.62 171.47 61.0388 170.94 59.4319 170.94C57.2943 170.94 55.0965 171.915 53.2977 173.642C56.109 176.522 56.5651 179.972 55.7098 182.245C55.1032 183.85 53.8575 184.849 52.4546 184.849C52.4546 184.849 52.4546 184.849 52.4526 184.849C51.5682 184.849 50.6708 184.455 49.8576 183.71C47.2984 181.364 48.2974 176.999 50.7908 173.79C49.7058 172.971 48.3991 172.273 46.8959 171.708C43.1202 170.291 40.3835 170.46 38.7508 172.259C36.5584 174.675 36.9643 179.176 36.9691 179.221C37.0016 179.56 36.8363 179.888 36.5442 180.064C36.2521 180.24 35.8827 180.233 35.6008 180.043C34.944 179.609 34.2066 179.39 33.4062 179.39C30.3585 179.39 26.7489 182.597 25.3609 186.54C24.5869 188.736 23.8956 192.908 27.9593 196.174C29.8325 197.68 31.7695 198.677 33.6231 199.095C33.4035 196.092 34.269 192.807 35.8535 190.91C36.6363 189.972 37.535 189.476 38.452 189.476C39.1134 189.476 40.0955 189.742 41.0179 191.013C42.6058 193.199 42.9203 195.622 41.882 197.659C40.8159 199.749 38.5469 201.021 35.7844 201.087C36.4859 203.295 38.2446 205.548 42.475 205.769C48.4465 206.068 52.9995 205.149 55.8643 203.131C54.1002 200.026 54.332 196.685 55.4184 194.635C56.0629 193.417 56.9785 192.719 57.9273 192.719C58.5807 192.719 59.7674 193.055 60.3685 195.307C61.1852 198.358 60.4024 201.286 58.2235 203.459ZM57.9294 194.489C57.7633 194.489 57.3608 194.753 56.9839 195.463C56.1652 197.008 55.9836 199.516 57.2313 201.94C58.7725 200.245 59.2808 198.087 58.66 195.764C58.3821 194.724 58.0317 194.489 57.9294 194.489ZM35.4205 199.318C37.6739 199.389 39.5038 198.432 40.309 196.856C41.0328 195.432 40.7719 193.682 39.5899 192.054C39.3222 191.684 38.9074 191.246 38.4547 191.246C38.0846 191.246 37.6441 191.529 37.2137 192.044C36.0528 193.435 35.0924 196.376 35.4205 199.318ZM69.7125 184.27C66.0771 184.966 63.3852 188.242 63.4143 189.547C63.4177 189.692 63.4244 189.936 64.1903 189.936C64.1923 189.936 64.1923 189.936 64.1923 189.936C64.2994 189.936 64.4133 189.93 64.5346 189.919C67.1391 189.673 69.1676 187.408 69.7125 184.27ZM52.1171 174.964C49.9782 177.744 49.4753 180.958 51.0545 182.404C52.2642 183.512 53.4801 183.139 54.0541 181.621C54.7 179.907 54.3116 177.267 52.1171 174.964Z" fill="white"/>
<defs>
<linearGradient id="paint0_linear_2023_3392" x1="182.5" y1="-6.3787" x2="182.5" y2="306.017" gradientUnits="userSpaceOnUse">
<stop stop-color="#6D13FF"/>
<stop offset="0.0490798" stop-color="#9859FF"/>
<stop offset="0.898447" stop-color="#9859FF"/>
<stop offset="1" stop-color="#6D13FF"/>
</linearGradient>
</defs>
</svg>

<svg width="365" height="294" fill="none" xmlns="http://www.w3.org/2000/svg"><rect y=".154" width="365" height="293" rx="18" fill="url(#a)"/><path d="M320.117 200.236h-.026a6.071 6.071 0 0 1-4.318-1.811 6.065 6.065 0 0 1-1.773-4.332c.014-3.359 2.758-6.093 6.117-6.093 1.66.007 3.194.65 4.345 1.811a6.077 6.077 0 0 1 1.771 4.333c-.013 3.361-2.757 6.092-6.116 6.092Zm.019-10.466c-2.407 0-4.356 1.943-4.367 4.33a4.32 4.32 0 0 0 1.26 3.079 4.31 4.31 0 0 0 3.069 1.287h.019a4.356 4.356 0 0 0 4.347-4.328 4.312 4.312 0 0 0-1.26-3.081 4.32 4.32 0 0 0-3.068-1.287ZM46.117 45.235h-.026A6.127 6.127 0 0 1 40 39.091C40.013 35.73 42.757 33 46.116 33c3.398.014 6.132 2.77 6.118 6.143-.014 3.358-2.76 6.092-6.118 6.092Zm.019-10.466c-2.407 0-4.356 1.942-4.367 4.329a4.356 4.356 0 0 0 4.329 4.368h.019a4.358 4.358 0 0 0 4.349-4.33 4.353 4.353 0 0 0-4.33-4.367ZM63.283 207.866c-1.93 0-3.566-.565-4.864-1.682a12.288 12.288 0 0 1-1.554-1.593c-2.813 1.97-7.01 3.005-12.223 3.005-.726 0-1.477-.019-2.258-.06-4.446-.232-7.5-2.62-8.47-6.584-2.33-.38-4.757-1.546-7.062-3.399-3.587-2.883-4.74-7.113-3.159-11.602 1.645-4.671 5.911-8.33 9.714-8.33.615 0 1.204.09 1.766.269.048-1.792.428-4.795 2.27-6.82 2.126-2.346 5.558-2.716 10.076-1.018 1.714.643 3.209 1.453 4.453 2.412 2.146-2.103 4.824-3.295 7.461-3.295 1.975 0 3.895.638 5.708 1.893 4.048 2.805 6.424 6.984 6.483 11.324 2.4.16 4.639 1.361 6.507 3.497 2.515 2.878 2.912 6.64 1.12 10.59-2.755 6.069-10.216 11.393-15.968 11.393Zm-5.06-4.407c.394.489.846.952 1.35 1.386.966.83 2.215 1.252 3.71 1.252 5.054 0 11.896-4.937 14.357-10.355 1.054-2.321 1.762-5.713-.842-8.693-1.567-1.794-3.342-2.767-5.279-2.896-.56 4.147-3.276 7.193-6.82 7.528-.18.017-.349.024-.508.024h-.002c-1.84 0-2.521-1.094-2.544-2.116-.055-2.414 3.677-6.494 8.21-7.135-.038-3.782-2.138-7.452-5.725-9.937-1.51-1.047-3.091-1.577-4.698-1.577-2.138 0-4.336.975-6.134 2.702 2.811 2.88 3.267 6.33 2.412 8.603-.607 1.605-1.852 2.604-3.255 2.604h-.002c-.885 0-1.782-.394-2.595-1.139-2.56-2.346-1.56-6.711.933-9.92-1.085-.819-2.392-1.517-3.895-2.082-3.776-1.417-6.513-1.248-8.145.551-2.193 2.416-1.787 6.917-1.782 6.962a.886.886 0 0 1-1.368.822 3.91 3.91 0 0 0-2.195-.653c-3.047 0-6.657 3.207-8.045 7.15-.774 2.196-1.465 6.368 2.598 9.634 1.873 1.506 3.81 2.503 5.664 2.921-.22-3.003.646-6.288 2.23-8.185.783-.938 1.682-1.434 2.599-1.434.661 0 1.644.266 2.566 1.537 1.588 2.186 1.902 4.609.864 6.646-1.066 2.09-3.335 3.362-6.098 3.428.702 2.208 2.46 4.461 6.691 4.682 5.971.299 10.524-.62 13.39-2.638-1.765-3.105-1.533-6.446-.447-8.496.645-1.218 1.56-1.916 2.51-1.916.653 0 1.84.336 2.44 2.588.817 3.051.034 5.979-2.145 8.152Zm-.294-8.97c-.166 0-.568.264-.945.974-.819 1.545-1 4.053.247 6.477 1.541-1.695 2.05-3.853 1.429-6.176-.278-1.04-.628-1.275-.73-1.275Zm-22.509 4.829c2.254.071 4.084-.886 4.889-2.462.724-1.424.463-3.174-.72-4.802-.267-.37-.682-.808-1.134-.808-.37 0-.81.283-1.241.798-1.161 1.391-2.122 4.332-1.794 7.274Zm34.293-15.048c-3.636.696-6.328 3.972-6.299 5.277.004.145.01.389.776.389h.002c.107 0 .221-.006.343-.017 2.604-.246 4.633-2.511 5.178-5.649Zm-17.596-9.306c-2.139 2.78-2.642 5.994-1.063 7.44 1.21 1.108 2.426.735 3-.783.646-1.714.258-4.354-1.937-6.657Z" fill="#fff"/><defs><linearGradient id="a" x1="182.5" y1="-6.379" x2="182.5" y2="306.017" gradientUnits="userSpaceOnUse"><stop stop-color="#6D13FF"/><stop offset=".049" stop-color="#9859FF"/><stop offset=".898" stop-color="#9859FF"/><stop offset="1" stop-color="#6D13FF"/></linearGradient></defs></svg>
